remix/Map/takeaway-line.svg

<svg viewBox="0 0 24 24" fill="currentColor" xmlns="http://www.w3.org/2000/svg"><path d="M16 1C16.5523 1 17 1.44772 17 2V2.999L22 3V9L19.98 8.999L22.7467 16.5953C22.9105 17.032 23 17.5051 23 17.999C23 20.2082 21.2091 21.999 19 21.999C17.1368 21.999 15.5711 20.7251 15.1265 19.0008L10.8738 19.0008C10.4295 20.7256 8.86357 22 7 22C5.05513 22 3.43445 20.612 3.07453 18.7725C2.43558 18.439 2 17.7704 2 17V4C2 3.44772 2.44772 3 3 3H10C10.5523 3 11 3.44772 11 4V12C11 12.5128 11.386 12.9355 11.8834 12.9933L12 13H14C14.5128 13 14.9355 12.614 14.9933 12.1166L15 12V3H12V1H16ZM7 16C5.89543 16 5 16.8954 5 18C5 19.1046 5.89543 20 7 20C8.10457 20 9 19.1046 9 18C9 16.8954 8.10457 16 7 16ZM19 15.999C17.8954 15.999 17 16.8944 17 17.999C17 19.1036 17.8954 19.999 19 19.999C20.1046 19.999 21 19.1036 21 17.999C21 16.8944 20.1046 15.999 19 15.999ZM17.852 8.999H17V12C17 13.6569 15.6569 15 14 15H12C10.6941 15 9.58312 14.1656 9.17102 13.0009L3.99994 13V15.3542C4.73289 14.5238 5.80528 14 7 14C8.86393 14 10.4301 15.2749 10.874 17.0003H15.1257C15.5693 15.2744 17.1357 13.999 19 13.999C19.2373 13.999 19.4697 14.0197 19.6957 14.0593L17.852 8.999ZM9 8H4V11H9V8ZM20 5H17V7H20V5ZM9 5H4V6H9V5Z"/></svg>

<svg viewBox="0 0 24 24" xmlns="http://www.w3.org/2000/svg"><path fill="none" d="M0 0h24v24H0Z"/><path d="M16 1c.55 0 1 .44 1 1v.99l5 0v6l-2.02-.01 2.76 7.59c.16.43.25.9.25 1.4 0 2.2-1.8 4-4 4 -1.87 0-3.43-1.28-3.88-3l-4.26-.01c-.45 1.72-2.02 2.99-3.88 2.99 -1.95 0-3.57-1.39-3.93-3.23 -.64-.34-1.08-1.01-1.08-1.78v-13c0-.56.44-1 1-1h7c.55 0 1 .44 1 1v8c0 .51.38.93.88.99l.11 0h2c.51 0 .93-.39.99-.89l0-.12v-9h-3v-2h4ZM7 16c-1.11 0-2 .89-2 2 0 1.1.89 2 2 2 1.1 0 2-.9 2-2 0-1.11-.9-2-2-2Zm12-.01c-1.11 0-2 .89-2 2 0 1.1.89 2 2 2 1.1 0 2-.9 2-2 0-1.11-.9-2-2-2Zm-1.15-7.01h-.86v3c0 1.65-1.35 3-3 3h-2c-1.31 0-2.42-.84-2.83-2l-5.18-.01v2.35c.73-.84 1.8-1.36 3-1.36 1.86 0 3.43 1.27 3.87 3h4.25c.44-1.73 2.01-3.01 3.87-3.01 .23 0 .46.02.69.06l-1.85-5.07Zm-8.852-1h-5v3h5v-3Zm11-3h-3v2h3v-2Zm-11 0h-5v1h5v-1Z"/></svg>
